src/status/24/notification-new-20-symbolic.svg

<?xml version="1.0" encoding="UTF-8" standalone="no"?>
<svg
   xmlns:dc="http://purl.org/dc/elements/1.1/"
   xmlns:cc="http://creativecommons.org/ns#"
   xmlns:rdf="http://www.w3.org/1999/02/22-rdf-syntax-ns#"
   xmlns:svg="http://www.w3.org/2000/svg"
   xmlns="http://www.w3.org/2000/svg"
   id="svg8"
   version="1.1"
   width="24"
   height="24">
  <metadata
     id="metadata14">
    <rdf:RDF>
      <cc:Work
         rdf:about="">
        <dc:format>image/svg+xml</dc:format>
        <dc:type
           rdf:resource="http://purl.org/dc/dcmitype/StillImage" />
        <dc:title />
      </cc:Work>
    </rdf:RDF>
  </metadata>
  <defs
     id="defs12" />
  <path
     id="path2-3-5-2-2-5-8"
     d="M 12.861328 5.0097656 C 12.475354 5.0635073 12.138455 5.3401348 12.03125 5.7402344 L 12.029297 5.75 C 10.207387 5.733905 8.5711563 7.0687258 8.0976562 8.828125 C 8.0976562 8.828125 6.8051856 13.657925 5.0410156 13.828125 C 5.0227156 13.834625 5.0098344 13.852185 4.9902344 13.859375 C 4.9166344 13.890775 4.8485525 13.934708 4.7890625 13.988281 C 4.7646625 14.009701 4.73955 14.023455 4.71875 14.046875 C 4.63935 14.132215 4.5808381 14.235556 4.5488281 14.347656 C 4.4411581 14.749481 4.6792081 15.158216 5.0800781 15.265625 L 15.220703 17.984375 C 15.622523 18.092044 16.032955 17.85495 16.140625 17.453125 C 16.168825 17.340016 16.169078 17.222975 16.142578 17.109375 C 16.136578 17.078705 16.122981 17.050994 16.113281 17.021484 C 16.088281 16.945184 16.050483 16.874569 16.001953 16.810547 C 15.989653 16.794817 15.988209 16.772842 15.974609 16.757812 C 14.531619 15.729308 15.826172 10.898438 15.826172 10.898438 C 16.296072 9.1370369 15.548037 7.16389 13.960938 6.2675781 L 13.962891 6.2578125 C 14.105821 5.7243472 13.789329 5.1761437 13.255859 5.0332031 C 13.122494 4.997468 12.989986 4.9918517 12.861328 5.0097656 z M 8.8652344 17.318359 C 8.8756344 18.277378 9.5658556 19.093785 10.509766 19.263672 C 11.330926 19.410734 12.157061 19.032317 12.582031 18.314453 L 8.8652344 17.318359 z "
     style="color:#bebebe;overflow:visible;isolation:auto;mix-blend-mode:normal;fill:#363636;marker:none" />
</svg>

<svg xmlns="http://www.w3.org/2000/svg" width="24" height="24">
    <path d="M12.861 5.01a1 1 0 0 0-.83.73l-.002.01c-1.822-.016-3.458 1.319-3.931 3.078 0 0-1.293 4.83-3.057 5-.018.007-.031.024-.05.031a.729.729 0 0 0-.202.13c-.024.02-.05.034-.07.058a.741.741 0 0 0-.17.3c-.108.402.13.811.531.919l10.14 2.718a.75.75 0 0 0 .92-.53.73.73 0 0 0 .003-.345c-.006-.03-.02-.058-.03-.088a.72.72 0 0 0-.111-.21c-.012-.016-.014-.038-.027-.053-1.443-1.029-.149-5.86-.149-5.86.47-1.761-.278-3.734-1.865-4.63l.002-.01A1 1 0 0 0 12.86 5.01zM8.865 17.318a1.999 1.999 0 0 0 3.717.996l-3.717-.996z" style="color:#bebebe;overflow:visible;isolation:auto;mix-blend-mode:normal;fill:#050505;opacity:.7;marker:none"/>
</svg>
